!!!COA:	Josquin des Prez
!!!CDT:	~1450-1521/08/27
!!!OTL@@FRE: Je me complains
!!!AGN:	Chanson
!!!SCT:	NJE 29.10
!!!SCA:	New Josquin Edition 29.10
!!!voices:	5
**kern	**kern	**kern	**kern	**kern
*staff5	*staff4	*staff3	*staff2	*staff1
*Ivox	*Ivox	*Ivox	*Ivox	*Ivox
*I"Bassus	*I"Contratenor	*I"Tenor	*I"Quintus	*I"Superius
*I'B	*I'Ct	*I'T	*I'Q	*I'S
*clefF4	*clefGv2	*clefGv2	*clefGv2	*clefG2
*k[b-]	*k[b-]	*k[b-]	*k[b-]	*k[b-]
*M2/1	*M2/1	*M2/1	*M2/1	*M2/1
*met(C|)	*met(C|)	*met(C|)	*met(C|)	*met(C|)
=1-	=1-	=1-	=1-	=1-
!	!	!	!	!LO:TX:Z=10:t=Canon at the lower fourth
0r	1g	1r	0r	0r
.	1f	1d	.	.
=2	=2	=2	=2	=2
1r	1e-i	1c	0r	0r
1G	2d\	1B-	.	.
.	2G/	.	.	.
=3	=3	=3	=3	=3
1F	2A/	2A/	0r	1r
.	2F/	2d\	.	.
1E-i	1G	2d\	.	1g
.	.	2c\	.	.
=4	=4	=4	=4	=4
1D	1A	2d\	0r	1f
.	.	2d\	.	.
2r	2r	2c\	.	1e-i
2A\	2c\	2c\	.	.
=5	=5	=5	=5	=5
4B-\	1B-	2d\	0r	1d
4A\	.	.	.	.
4G\	.	2d\	.	.
4F\	.	.	.	.
1E-i	1G	2c\	.	2g/
.	.	2c\	.	[2g/
=6	=6	=6	=6	=6
1D	1A	1d	1r	2g/]
.	.	.	.	4f/
.	.	.	.	4e/
2r	2r	2r	1d	1f
2D\	2A/	2f\	.	.
=7	=7	=7	=7	=7
2.E-i\	1G	2e-i\	1c	1g
.	.	2e-i\	.	.
4F\	.	.	.	.
1G	1G	1d	1B-	2g/
.	.	.	.	[2g/
=8	=8	=8	=8	=8
1D	1A	2r	1A	2g/]
.	.	2.D/	.	4f#i/
.	.	.	.	4e/
2r	2r	.	2d\	1f#i
.	.	4E/	.	.
2D\	2A/	4F/	[2d\	.
.	.	4D/	.	.
=9	=9	=9	=9	=9
1E-i	1G	2G/	2d\]	0g
.	.	2.C/	4c\	.
.	.	.	4B-\	.
1E-i	1G	.	1c	.
.	.	4D/	.	.
.	.	4E-i/	.	.
.	.	4C/	.	.
=10	=10	=10	=10	=10
1D	1A	3.F/V	1d	0r
.	.	6G/	.	.
.	.	3A/Z	.	.
2r	2r	3D/V	2d\	.
.	.	3.F/	.	.
2D\	2A/	.	[2d\	.
.	.	6G/Z	.	.
=11	=11	=11	=11	=11
2.F\	2.A/	3A/V	2d\]	0r
.	.	3D/	.	.
.	.	.	4c\	.
.	.	3d\Z	.	.
4G\	4B-\	.	4B-\	.
1E	1G	3e\V	1c	.
.	.	3%2gZ	.	.
=12	=12	=12	=12	=12
0D	0A	1f	0d	1r
.	.	2r	.	1a
.	.	2f\	.	.
=13	=13	=13	=13	=13
0r	0r	1g	0r	1b-
.	.	1g	.	1b-
=14	=14	=14	=14	=14
0r	0r	2.f\	0r	1.a
.	.	4d\	.	.
.	.	2f\	.	.
.	.	[2e\	.	2g/
=15	=15	=15	=15	=15
0r	0r	4e\]	1r	1f
.	.	4d\	.	.
.	.	1d	.	.
.	.	.	1e	1e
.	.	2c#i\	.	.
=16	=16	=16	=16	=16
2r	2.D/	1d	1f	0d
2D\	.	.	.	.
.	4E/	.	.	.
2D\	4F/	1A	1f	.
.	4G/	.	.	.
2D\	4A/	.	.	.
.	4F/	.	.	.
=17	=17	=17	=17	=17
1.C	2G/	2.c\	1.e	0r
.	4C/	.	.	.
.	4D/	4B-\	.	.
.	4E/	1G	.	.
.	4F/	.	.	.
2BB-/	[2G/	.	2d\	.
=18	=18	=18	=18	=18
1AA	2G/]	2r	1c	0r
.	2C/	2c\	.	.
1GG	1G	2d\	1B-	.
.	.	2e\	.	.
=19	=19	=19	=19	=19
0D	0F	1f	0A	2r
.	.	.	.	2d/
.	.	2d\	.	2f/
.	.	2f\	.	2d/
=20	=20	=20	=20	=20
0r	0r	2d\	0r	2.f/
.	.	2.f\	.	.
.	.	.	.	4g/
.	.	.	.	2a/
.	.	4e\	.	.
.	.	2d\	.	[2b-\
=21	=21	=21	=21	=21
0r	0r	2c\	0r	4b-\]
.	.	.	.	4a/
.	.	2A/	.	1a
.	.	1B-	.	.
.	.	.	.	2g/
=22	=22	=22	=22	=22
0r	1r	1A	2r	0a
.	.	.	2A/	.
.	2A/	1r	2c\	.
.	2c\	.	2A/	.
=23	=23	=23	=23	=23
2r	2A/	2r	2.c\	0r
2AA/	2.c\	2e\	.	.
.	.	.	4d\	.
2C/	.	2e\	2e\	.
.	4B-\	.	.	.
2D\	2A/	2d\	[2f\	.
=24	=24	=24	=24	=24
2E\	2G/	2B-\	4f\]	0r
.	.	.	4e\	.
2C/	2E/	2c\	1e	.
1D	1F	2.A/	.	.
.	.	.	2d\	.
.	.	4B-\	.	.
=25	=25	=25	=25	=25
0C	0E	1c	0e	1r
.	.	2r	.	1g
.	.	2c\	.	.
=26	=26	=26	=26	=26
1r	1r	2d\	0r	1f
.	.	2B-\	.	.
2r	2r	2c\	.	1e-i
2C/	2c\	2g\	.	.
=27	=27	=27	=27	=27
2D\	2A/	1f	0r	1d
2BB-/	2B-\	.	.	.
1C	2G/	1e-i	.	2g/
.	2c\	.	.	[2g/
=28	=28	=28	=28	=28
1GG	1B-	1d	1r	2g/]
.	.	.	.	4f/
.	.	.	.	4e/
1D	1A	2r	1d	1f
.	.	2f\	.	.
=29	=29	=29	=29	=29
2.E-i\	1G	2e-i\	1c	1g
.	.	2e-i\	.	.
4F\	.	.	.	.
2G\	2r	1d	1B-	2r
2GG/	2G/	.	.	2g/
=30	=30	=30	=30	=30
1D	1A	2r	1A	1f
.	.	2.D/	.	.
2r	1A	.	2d\	1f
.	.	4E-i/	.	.
2D\	.	4F/	[2d\	.
.	.	4D/	.	.
=31	=31	=31	=31	=31
1E-i	0G	2G/	2d\]	0g
.	.	2.C/	4c\	.
.	.	.	4B-\	.
1E-i	.	.	1c	.
.	.	4D/	.	.
.	.	4E-i/	.	.
.	.	4C/	.	.
=32	=32	=32	=32	=32
0D	2r	1F	1d	0r
.	2A/	.	.	.
.	2B-\	2r	2r	.
.	2B-\	2F/	2d\	.
=33	=33	=33	=33	=33
0r	2.A/	2.F/	1c	0r
.	4G/	4G/	.	.
.	2F/	2A/	1c	.
.	2E/	2G/	.	.
=34	=34	=34	=34	=34
1r	2D/	2.B-\	0d	1r
.	4d\	.	.	.
.	4e\	4c\	.	.
1D	4f\	1A	.	1a
.	4g\	.	.	.
.	4a\	.	.	.
.	4f\	.	.	.
=35	=35	=35	=35	=35
1G	2g\	4G/	0r	1.b-
.	.	4A/	.	.
.	4G/	4B-\	.	.
.	4A/	4c\	.	.
1G	4B-\	2d\	.	.
.	4c\	.	.	.
.	4d\	2B-\	.	2b-\
.	4e\	.	.	.
=36	=36	=36	=36	=36
1.F	2f\	3c\V	0r	1.a
.	.	3A/	.	.
.	4F/	.	.	.
.	.	3c\Z	.	.
.	4G/	.	.	.
.	4A/	2F/	.	.
.	4B-\	.	.	.
2E\	[2c\	2G/	.	2g/
=37	=37	=37	=37	=37
1D	2c\]	2A/	1r	1f
.	2F/	2B-\	.	.
1C	2G/	1c	1e	1e
.	2A/	.	.	.
=38	=38	=38	=38	=38
2BB-/	4D/	2d\	1.f	0d
.	4E/	.	.	.
2D\	4F/	4D/	.	.
.	4G/	4E/	.	.
2D\	2A/	4F/	.	.
.	.	4G/	.	.
2D\	2F/	4A/	2f\	.
.	.	4B-\	.	.
=39	=39	=39	=39	=39
1.C	2G/	2.c\	1.e	0r
.	4C/	.	.	.
.	4D/	4B-\	.	.
.	4E/	1G	.	.
.	4F/	.	.	.
2BB-/	[2G/	.	2d\	.
=40	=40	=40	=40	=40
1AA	2G/]	2r	1c	0r
.	2C/	2c\	.	.
1GG	1G	2d\	1B-	.
.	.	2e\	.	.
=41	=41	=41	=41	=41
0D	1.F	2f\	0A	1r
.	.	2d\	.	.
.	.	2.f\	.	1d
.	2D/	.	.	.
.	.	4e\	.	.
=42	=42	=42	=42	=42
2r	1D	4d\	0r	2.f/
.	.	4c\	.	.
2D\	.	2.d\	.	.
.	.	.	.	4e/
2D\	2r	.	.	2f/
.	.	4c\	.	.
2GG/	2d\	2B-\	.	2g/
=43	=43	=43	=43	=43
2.D\	2.f\	2A/	0r	2.a/
.	.	2.f\	.	.
4E\	4e\	.	.	4g/
2F\	4d\	.	.	2a/
.	4c\	4e\	.	.
[2BB-/	2d\	4d\	.	[2b-\
.	.	4c\	.	.
=44	=44	=44	=44	=44
4BB-/]	2B-\	2d\	1r	4b-\]
4C/	.	.	.	4a/
2E-i\	2c\	2G/	.	2.g/
1D	1d	2A/	1A	.
.	.	.	.	4f#i/
.	.	2D/	.	4f#i/
.	.	.	.	4e/
=45	=45	=45	=45	=45
1.C	2.e-i\	0G	2.c\	0g
.	4d\	.	4B-\	.
.	2c\	.	2c\	.
2GG/	2B-\	.	2d\	.
=46	=46	=46	=46	=46
4C/	2.c\	0r	2.e-i\	0r
4D\	.	.	.	.
4E-i\	.	.	.	.
4F\	4A/	.	4d\	.
2G\	2B-\	.	2e-i\	.
2A\	2c\	.	[2f\	.
=47	=47	=47	=47	=47
2F\	2A/	2r	4f\]	0r
.	.	.	4e-i\	.
2G\	2B-\	2d\	2.d\	.
1E-i	1G	2e-i\	.	.
.	.	.	4c\	.
.	.	2g\	4c\	.
.	.	.	4B-\	.
=48	=48	=48	=48	=48
!	!	!	!LO:N:vis=0	!
1.D	2A/	2.f\	[0dl	1r
.	2D/	.	.	.
.	.	4e\	.	.
.	2F/	4d\	.	2r
.	.	4c\	.	.
2GG/	2G/	2B-\	.	2d/
=49	=49	=49	=49	=49
2.D\	2A/	2A/	0d_	2.f/
.	2D/	2.f\	.	.
4E\	.	.	.	4g/
2F\	2r	.	.	2a/
.	.	4e\	.	.
2G\	4G/	4d\	.	[2b-\
.	4A/	4c\	.	.
=50	=50	=50	=50	=50
1GG	4B-\	2d\	0d_	4b-\]
.	4c\	.	.	4a/
.	2.d\	2B-\	.	2.g/
1D	.	1A	.	.
.	4c\	.	.	4f#i/
.	2A/	.	.	4f#i/
.	.	.	.	4e/
=51	=51	=51	=51	=51
2r	1B-	2r	0d_	2g/
2GG/	.	2G/	.	2d/
2.D\	2A/	2.A/	.	2f/
.	2d\	.	.	2f/
4D\	.	4A/	.	.
=52	=52	=52	=52	=52
2D\	2f\	2A/	0d_	2d/
2BB-/	2f\	2B-\	.	2d/
2.BB-/	2d\	2.B-\	.	2f/
.	2d\	.	.	2f/
4BB-/	.	4B-\	.	.
=53	=53	=53	=53	=53
2BB-/	2f\	2B-\	0d_	1d
2B-\	2f\	2BB-/	.	.
4B-\	1d	4BB-/	.	2r
4B-\	.	4BB-/	.	.
4B-\	.	4BB-/	.	2d/
4B-\	.	4C/	.	.
=54	=54	=54	=54	=54
4A\	2d\	4D/	0d_	2.f/
4G\	.	4D/	.	.
4F\	2.f\	4D/	.	.
4E\	.	4E/	.	4g/
4D\	.	4F/	.	2a/
4C/	4e\	4F/	.	.
4BB-/	4d\	4G/	.	[2b-\
4AA/	4c\	4A/	.	.
=55	=55	=55	=55	=55
2GG/	2d\	4B-\	0d_	4b-\]
.	.	4c\	.	4a/
2GG/	2B-\	2.d\	.	1g
1D	1A	.	.	.
.	.	4c\	.	.
.	.	2A/	.	2f#i/
=56	=56	=56	=56	=56
0GGl	0Gl	0B-l	0d]	0gl
==	==	==	==	==
*-	*-	*-	*-	*-
!!!RDF**kern: l=long note in original notation
!!!RDF**kern: i=editorial accidental
!!!ENC:	Will Watson 13/11/2011
!!!END:	2011/11/13/
!!!EED:	Jesse Rodin
!!!EEV:	2011/12/02/
!!attribution-level@Jos: 3 (tricky)
!!!ONB:	Translated from MusicXML and edited on 2011/12/02/ by Craig Sapp
!!muse2ps: C^@{COA}?\n@{SCT}^I150v95,95,95,95,95,130c95i2I150Q16
